public/avatar/item2/59.svg

<svg xmlns:xlink="http://www.w3.org/1999/xlink" height="99.2" width="82.2" xmlns="http://www.w3.org/2000/svg"><use height="19.85" transform="translate(33.15 70.25)" width="15.55" xlink:href="#a"/><defs><g id="a" fill-rule="evenodd"><path d="M12.55 27.5q2.4.3 3.9 2.8 1.4 2.3 1.25 5.45-.2 3.15-1.8 5.35-2 2.65-5.15 2.2l3-2.85q1.15-1.5 1.2-3.5.1-2-.85-3.55-1.1-1.55-2.65-1.65-1.55-.05-2.9 1.5-1.4 1.75-1.95 4.3Q5 33.1 7.95 29.7q2-2.45 4.6-2.2" fill="#0d090e" transform="translate(-2.15 -23.5)"/><path d="M12.45 28.5q2.2.15 3.55 2.4 1.25 2.1 1.1 4.85-.15 2.75-1.6 4.75-1.35 1.85-3.2 2.15 1.05-.45 1.9-1.6 1.3-1.75 1.4-4.15.1-2.4-1-4.15-1.2-1.9-3.1-2-1.95-.05-3.45 1.75-.95 1.2-1.35 2.8.15-2.75 1.8-4.85 1.7-2.1 3.95-1.95" fill="#f9e56d" transform="translate(-2.15 -23.5)"/><path d="M9.2 29.65q2.55-2.1 4.95-.55 1.95 1.25 2.55 3.45-1.25-2.85-4.3-3-2.7-.15-4.45 2.85-.85 1.5-1.2 3-.05-3.65 2.45-5.75" fill="#ffffe8" transform="translate(-2.15 -23.5)"/><path d="m4.25 28.05 1.9-2.95 3.65 4.2-.55 1.65q-.6.55-1.55.65l-3.45-3.55" fill="#0d090e" transform="translate(-2.15 -23.5)"/><path d="m6.2 26.4 3.1 3.45-.4.95q-.4.45-.95.2L5.2 28.15l1-1.75" fill="#f9e56d" transform="translate(-2.15 -23.5)"/><path d="M7.35 26.1q0 2.6-2.6 2.6t-2.6-2.6q0-2.6 2.6-2.6t2.6 2.6" fill="#0d090e" transform="translate(-2.15 -23.5)"/><path d="M2.75 26.1q0-2 2-2t2 2q0 2-2 2t-2-2" fill="#f9e56d" transform="translate(-2.15 -23.5)"/><path d="m3.6 24.4 1.6.1q.8.8-.05.8-.85 0-1.35.9-.55 1 .45 1.8-1.65-.45-1.5-1.9.1-1.2.85-1.7" fill="#ffffe8" transform="translate(-2.15 -23.5)"/><path d="M14 31.55q-1.4-1.3-2.95-.9 2.3-.7 4.4 1.65 2.2 2.5 1.35 5.6-1.25 4.3-4.5 4.75 4.65-2.65 3.45-7.8-.45-2.05-1.75-3.3M7 27.4l.05.1q.65.5 2.3 2.5l-.2.5-3.55-1.95q.8-.35 1.4-1.15" fill="#e6b849" transform="translate(-2.15 -23.5)"/></g></defs></svg>

<?xml version="1.0" encoding="UTF-8" standalone="no"?>
<svg xmlns:xlink="http://www.w3.org/1999/xlink" height="99.2px" width="82.2px" xmlns="http://www.w3.org/2000/svg">
  <g transform="matrix(1.0, 0.0, 0.0, 1.0, 31.0, 46.75)">
    <use height="19.85" transform="matrix(1.0, 0.0, 0.0, 1.0, 2.15, 23.5)" width="15.55" xlink:href="#shape0"/>
  </g>
  <defs>
    <g id="shape0" transform="matrix(1.0, 0.0, 0.0, 1.0, -2.15, -23.5)">
      <path d="M12.55 27.5 Q14.95 27.8 16.45 30.3 17.85 32.6 17.7 35.75 17.5 38.9 15.9 41.1 13.9 43.75 10.75 43.3 L13.75 40.45 Q14.9 38.95 14.95 36.95 15.05 34.95 14.1 33.4 13.0 31.85 11.45 31.75 9.9 31.7 8.55 33.25 7.15 35.0 6.6 37.55 5.0 33.1 7.95 29.7 9.95 27.25 12.55 27.5" fill="#0d090e" fill-rule="evenodd" stroke="none"/>
      <path d="M12.45 28.5 Q14.65 28.65 16.0 30.9 17.25 33.0 17.1 35.75 16.95 38.5 15.5 40.5 14.15 42.35 12.3 42.65 13.35 42.2 14.2 41.05 15.5 39.3 15.6 36.9 15.7 34.5 14.6 32.75 13.4 30.85 11.5 30.75 9.55 30.7 8.05 32.5 7.1 33.7 6.7 35.3 6.85 32.55 8.5 30.45 10.2 28.35 12.45 28.5" fill="#f9e56d" fill-rule="evenodd" stroke="none"/>
      <path d="M9.2 29.65 Q11.75 27.55 14.15 29.1 16.1 30.35 16.7 32.55 15.45 29.7 12.4 29.55 9.7 29.4 7.95 32.4 7.1 33.9 6.75 35.4 6.7 31.75 9.2 29.65" fill="#ffffe8" fill-rule="evenodd" stroke="none"/>
      <path d="M4.25 28.05 L6.15 25.1 9.8 29.3 9.25 30.95 Q8.65 31.5 7.7 31.6 L4.25 28.05" fill="#0d090e" fill-rule="evenodd" stroke="none"/>
      <path d="M6.2 26.4 L9.3 29.85 8.9 30.8 Q8.5 31.25 7.95 31.0 L5.2 28.15 6.2 26.4" fill="#f9e56d" fill-rule="evenodd" stroke="none"/>
      <path d="M7.35 26.1 Q7.35 28.7 4.75 28.7 2.15 28.7 2.15 26.1 2.15 23.5 4.75 23.5 7.35 23.5 7.35 26.1" fill="#0d090e" fill-rule="evenodd" stroke="none"/>
      <path d="M2.75 26.1 Q2.75 24.1 4.75 24.1 6.75 24.1 6.75 26.1 6.75 28.1 4.75 28.1 2.75 28.1 2.75 26.1" fill="#f9e56d" fill-rule="evenodd" stroke="none"/>
      <path d="M3.6 24.4 L5.2 24.5 Q6.0 25.3 5.15 25.3 4.3 25.3 3.8 26.2 3.25 27.2 4.25 28.0 2.6 27.55 2.75 26.1 2.85 24.9 3.6 24.4" fill="#ffffe8" fill-rule="evenodd" stroke="none"/>
      <path d="M14.0 31.55 Q12.6 30.25 11.05 30.65 13.35 29.95 15.45 32.3 17.65 34.8 16.8 37.9 15.55 42.2 12.3 42.65 16.95 40.0 15.75 34.85 15.3 32.8 14.0 31.55" fill="#e6b849" fill-rule="evenodd" stroke="none"/>
      <path d="M7.0 27.4 L7.05 27.5 Q7.7 28.0 9.35 30.0 L9.15 30.5 5.6 28.55 Q6.4 28.2 7.0 27.4" fill="#e6b849" fill-rule="evenodd" stroke="none"/>
    </g>
  </defs>
</svg>
